X: 2
T: Miss Rowan Davies
R: waltz
M: 3/4
L: 1/8
K: Gmaj
|:BA | G2 GA D2 | D3 E F2 | G6 | G2 Gg gf |
e2 ef ge | d2 dG B2 | A4 B/A/G/A/ | B4 A2 |
G2 GA D2 | D3 E F2 | G6 | G2 GA BG|
Ec c2 A2|F2 FG AF|G6|1G6:|2G4 GF||
|:E2 EF E2 |e2 ef ge | d6 | d2 dB BA |
G2 GA Bd | e2 G2 GA | B6 | B2 c2 d2 |
e4 EG | F2 FG AF | G2 GB AG/F/ | G2 GA BG |
Ec c2 A2 | F2 FG AF| G6 |1G4 GF :|2G4 z2|


Tune 5561	Setting 5561

